X:1
T:Putney Hill, CM
T:Putney Hill, CM
T:Frederick Alfred John Hervey (1846-1910)
T:Public Domain Courtesy of the Cyber Hymnal™
C:Frederick Alfred John Hervey (1846-1910)
Z:Public Domain
Z:Courtesy of the Cyber Hymnal™
%%score ( 1 2 ) ( 3 4 )
L:1/8
Q:1/4=112
M:4/4
K:Eb
V:1 treble 
V:2 treble 
V:3 bass 
V:4 bass 
V:1
 [B,E]2 | [EG]2 B2 [CE]2 [FA]2 | [EG]2 [DF]2 [EB]2 [Gc]2 | [Fd]2 [Ee]2 c2 z x3 | [DB]6 [FB]2 | %5
 [Fc]2 [Fd]2 [Ee]2 [EG]2 | [EA]2 [_DB]2 [Cc]2 F2 | [EG]2 [EA]2 [EF]2 [DF]2 | E6 |] %9
V:2
 x2 | x2 (ED) x4 | x8 | x4 F3 (c2 E) | x8 | x8 | x6 (C=D) | x8 | E6 |] %9
V:3
 [E,G,]2 | [E,B,]2 [G,B,]2 [A,C]2 [F,C]2 | B,2 B,2 [G,B,]2 [E,B,]2 | %3
 [F,B,]2 [G,B,]2 [F,B,]2 [F,=A,]2 x2 | [B,,B,]6 [B,D]2 | [A,C]2 [G,=B,]2 [C,C]2 [_D,E,]2 | %6
 [C,E,F,]2 [B,,E,G,]2 [A,,E,A,]2 [A,C]2 | [G,B,]2 [F,C]2 B,2 (B,A,) | [E,G,]6 |] %9
V:4
 x2 | x8 | B,2 (B,A,) x4 | x10 | x8 | x8 | x8 | x4 B,2 B,,2 | x6 |] %9

